svg/arrow/fullscreen_exit_2_line.svg

<?xml version="1.0" encoding="UTF-8"?>
<svg width="24px" height="24px" viewBox="0 0 24 24" version="1.1" xmlns="http://www.w3.org/2000/svg" xmlns:xlink="http://www.w3.org/1999/xlink">
    <title>fullscreen_exit_2_line</title>
    <g id="页面-1" stroke="none" stroke-width="1" fill="none" fill-rule="evenodd">
        <g id="Arrow" transform="translate(-672.000000, 0.000000)" fill-rule="nonzero">
            <g id="fullscreen_exit_2_line" transform="translate(672.000000, 0.000000)">
                 <path d="M24,0 L24,24 L0,24 L0,0 L24,0 Z M12.5934901,23.257841 L12.5819402,23.2595131 L12.5108777,23.2950439 L12.4918791,23.2987469 L12.4918791,23.2987469 L12.4767152,23.2950439 L12.4056548,23.2595131 C12.3958229,23.2563662 12.3870493,23.2590235 12.3821421,23.2649074 L12.3780323,23.275831 L12.360941,23.7031097 L12.3658947,23.7234994 L12.3769048,23.7357139 L12.4804777,23.8096931 L12.4953491,23.8136134 L12.4953491,23.8136134 L12.5071152,23.8096931 L12.6106902,23.7357139 L12.6232938,23.7196733 L12.6232938,23.7196733 L12.6266527,23.7031097 L12.609561,23.275831 C12.6075724,23.2657013 12.6010112,23.2592993 12.5934901,23.257841 L12.5934901,23.257841 Z M12.8583906,23.1452862 L12.8445485,23.1473072 L12.6598443,23.2396597 L12.6498822,23.2499052 L12.6498822,23.2499052 L12.6471943,23.2611114 L12.6650943,23.6906389 L12.6699349,23.7034178 L12.6699349,23.7034178 L12.678386,23.7104931 L12.8793402,23.8032389 C12.8914285,23.8068999 12.9022333,23.8029875 12.9078286,23.7952264 L12.9118235,23.7811639 L12.8776777,23.1665331 C12.8752882,23.1545897 12.8674102,23.1470016 12.8583906,23.1452862 L12.8583906,23.1452862 Z M12.1430473,23.1473072 C12.1332178,23.1423925 12.1221763,23.1452606 12.1156365,23.1525954 L12.1099173,23.1665331 L12.0757714,23.7811639 C12.0751323,23.7926639 12.0828099,23.8018602 12.0926481,23.8045676 L12.108256,23.8032389 L12.3092106,23.7104931 L12.3186497,23.7024347 L12.3186497,23.7024347 L12.3225043,23.6906389 L12.340401,23.2611114 L12.337245,23.2485176 L12.337245,23.2485176 L12.3277531,23.2396597 L12.1430473,23.1473072 Z" id="MingCute" fill-rule="nonzero"></path>
                <path d="M11,12 C11.51285,12 11.9355092,12.386027 11.9932725,12.8833761 L12,13 L12,18 C12,18.5523 11.5523,19 11,19 C10.48715,19 10.0644908,18.613973 10.0067275,18.1166239 L10,18 L10,15.4142 L4.70711,20.7071 C4.31658,21.0976 3.68342,21.0976 3.29289,20.7071 C2.93241,20.3466385 2.90468077,19.7793793 3.20970231,19.3871027 L3.29289,19.2929 L8.58579,14 L6,14 C5.44771,14 5,13.5523 5,13 C5,12.48715 5.38603566,12.0644908 5.8833779,12.0067275 L6,12 L11,12 Z M19.2929,3.29289 C19.6834,2.90237 20.3166,2.90237 20.7071,3.29289 C21.0675615,3.65337923 21.0952893,4.22060645 20.7902834,4.61290152 L20.7071,4.70711 L15.4142,10 L18,10 C18.5523,10 19,10.4477 19,11 C19,11.51285 18.613973,11.9355092 18.1166239,11.9932725 L18,12 L13,12 C12.48715,12 12.0644908,11.613973 12.0067275,11.1166239 L12,11 L12,6 C12,5.44772 12.4477,5 13,5 C13.51285,5 13.9355092,5.38604429 13.9932725,5.88337975 L14,6 L14,8.58579 L19.2929,3.29289 Z" id="形状" fill="#09244B"></path>
            </g>
        </g>
    </g>
</svg>

<svg xmlns="http://www.w3.org/2000/svg" width="24" height="24"><g fill="none" fill-rule="nonzero"><path d="M24 0v24H0V0h24ZM12.593 23.258l-.011.002-.071.035-.02.004-.014-.004-.071-.035c-.01-.004-.019-.001-.024.005l-.004.01-.017.428.005.02.01.013.104.074.015.004.012-.004.104-.074.012-.016.004-.017-.017-.427c-.002-.01-.009-.017-.017-.018Zm.265-.113-.013.002-.185.093-.01.01-.003.011.018.43.005.012.008.007.201.093c.012.004.023 0 .029-.008l.004-.014-.034-.614c-.003-.012-.01-.02-.02-.022Zm-.715.002a.023.023 0 0 0-.027.006l-.006.014-.034.614c0 .012.007.02.017.024l.015-.002.201-.093.01-.008.004-.011.017-.43-.003-.012-.01-.01-.184-.092Z"/><path fill="#09244B" d="M11 12a1 1 0 0 1 .993.883L12 13v5a1 1 0 0 1-1.993.117L10 18v-2.586l-5.293 5.293a1 1 0 0 1-1.497-1.32l.083-.094L8.586 14H6a1 1 0 0 1-.117-1.993L6 12h5Zm8.293-8.707a1 1 0 0 1 1.497 1.32l-.083.094L15.414 10H18a1 1 0 0 1 .117 1.993L18 12h-5a1 1 0 0 1-.993-.883L12 11V6a1 1 0 0 1 1.993-.117L14 6v2.586l5.293-5.293Z"/></g></svg>
